public/new/svg15.svg

<svg fill="none" height="18" viewBox="0 0 19 18" width="19" xmlns="http://www.w3.org/2000/svg" xmlns:xlink="http://www.w3.org/1999/xlink"><clipPath id="a"><path d="m.780273 0h18v18h-18z"/></clipPath><g clip-path="url(#a)"><path d="m2.28027 8v-1.5m0 0v-2c0-1.1.9-2 2-2h11.00003c.5304 0 1.0391.21071 1.4142.58579.3751.37507.5858.88378.5858 1.41421v2m-15.00003 0h15.00003m-7.50003 9h5.50003c.5304 0 1.0391-.2107 1.4142-.5858s.5858-.8838.5858-1.4142v-7" stroke="#77787e"/><path d="m5.78027 1h1v3h-1zm7.00003 0h1v3h-1z" fill="#77787e"/><path d="m.780273 12.5h7.499997m0 0-3.5 3.5m3.5-3.5-3.5-3.5" stroke="#77787e"/></g></svg>

<svg width="19" height="18" viewBox="0 0 19 18" fill="none" xmlns="http://www.w3.org/2000/svg">
<g clip-path="url(#clip0_181_14128)">
<path d="M2.28027 8V6.5M2.28027 6.5V4.5C2.28027 3.4 3.18027 2.5 4.28027 2.5H15.2803C15.8107 2.5 16.3194 2.71071 16.6945 3.08579C17.0696 3.46086 17.2803 3.96957 17.2803 4.5V6.5M2.28027 6.5H17.2803M9.78027 15.5H15.2803C15.8107 15.5 16.3194 15.2893 16.6945 14.9142C17.0696 14.5391 17.2803 14.0304 17.2803 13.5V6.5" stroke="#77787E"/>
<path d="M5.78027 1H6.78027V4H5.78027V1ZM12.7803 1H13.7803V4H12.7803V1Z" fill="#77787E"/>
<path d="M0.780273 12.5H8.28027M8.28027 12.5L4.78027 16M8.28027 12.5L4.78027 9" stroke="#77787E"/>
</g>
<defs>
<clipPath id="clip0_181_14128">
<rect width="18" height="18" fill="white" transform="translate(0.780273)"/>
</clipPath>
</defs>
</svg>
